X:0870
T:Prince Eugene's March.
M:C|
L:1/8
Q:1/2=72
I: :: :|
Z:Jack Campin * www.campin.me.uk * 2009
K:D
AG|F4    A4  | dcde d2fg|a2f2  d2 f2| edef e2
AG|F4    A4  | dcde d2fg|a2aa  a2^g2| a6   :|
cd|e2ee  e2e2|Te6     de|f2ff  f2 f2|Tf6     
fg|a2ag  f2fe| d2dd A2A2|\
   abag  fgfe| d2dd A2A2|
   D2DD  D2FE| D2DD D2\
fg|a2de Tf2fg| a2de f2fg|a2gf  ed`ef| d6   :|

